X:1
T:O Mistress Mine
M:3/4
L:1/8
K:D
 D2 FF E2| D2 F^G AA| D2 FF E2| D2 F^G AA| A2 BB B2| F2 AA AA| zA-B A d2|\
 F2 ED G2| F2- ED AA| F3/2 G/2A-G F2| A2- BA d2| F2 ED GG| F2- ED AA|\
 F3/2- G/2- AG F2|
